!!!!SEGMENT:pl-kk--kk-i-35--001_anonim-missa-kyrie.krn
!!!id: 16xx:1334
!!!COM: Anonim
!!!OTL: Missa – Kyrie
!!!PDT:
!!!SMS-siglum: PL-Kk
!!!SMS-shelfmark: Kk.I.35
!!!SMS-variant:
!!!SMS-altvar:
!!!NIFC-rismID: 1001154769
!!!system-decoration: [(s1,s2,s3,s4)]s5
**kern	**fba	**kern	**text	**kern	**text	**kern	**text	**kern	**text
*part5	*part5	*part4	*part4	*part3	*part3	*part2	*part2	*part1	*part1
*staff5	*staff5	*staff4	*staff4	*staff3	*staff3	*staff2	*staff2	*staff1	*staff1
*I"Basso ripieno	*	*I"Basso	*	*I"Tenore	*	*I"Alto	*	*I"Canto	*
*I'b rip	*	*I'B	*	*I'T	*	*I'A	*	*I'S	*
*clefF4	*	*clefF4	*	*clefC4	*	*clefC3	*	*clefC1	*
*k[]	*	*k[]	*	*k[]	*	*k[]	*	*k[]	*
*M2/1	*	*M2/1	*	*M2/1	*	*M2/1	*	*M2/1	*
=1	=1	=1	=1	=1	=1	=1	=1	=1	=1
*2\right	*	*2\right	*	*	*	*	*	*	*
!!LO:TX:a:t=P:problem:all\right:global
!LO:TX:t=P:problem:w źródle inicjał K na początku pięciolinii	!	!	!	!	!	!	!	!	!
!	!	!LO:TX:t=P:problem:w źródle inicjał K na początku pięciolinii	!	!LO:TX:t=P:problem:w źródle inicjał K na początku pięciolinii	!	!	!	!	!
!	!	!	!	!	!	!LO:TX:t=P:problem:w źródle inicjał K na początku pięciolinii	!	!LO:TX:t=P:problem:w źródle inicjał K na początku pięciolinii	!
!	!	!	!	!	!	!	!	!LO:TX:a:t=P:problem:w źródle kaudy półnut czasami również po lewej stronie:global	!
!LO:TX:b:Bi:t=Kyrie	!	!	!	!	!	!	!	!	!
1AA	.	1AA	Kÿ-	0r	.	00r	.	00r	.
2C#X/	.	2C#X/	-ri-	.	.	.	.	.	.
!LO:TX:t=P:problem:kreska pseudotaktowa	!	!	!	!	!	!	!	!	!
2D/	.	2D/	-e	.	.	.	.	.	.
=2	=2	=2-	=2-	=2-	=2-	=2-	=2-	=2-	=2-
*	*	*	*	*2\right	*	*	*	*	*
2D/	.	2D/	e-	1r	.	.	.	.	.
2C#y/	.	2C#/	.	.	.	.	.	.	.
2D\	.	2D\	.	1A	Kÿ-	.	.	.	.
!LO:TX:t=P:problem:kreska pseudotaktowa	!	!	!	!	!	!	!	!	!
2F\	.	2F\	.	.	.	.	.	.	.
=3	=3	=3-	=3-	=3-	=3-	=3-	=3-	=3-	=3-
!	!	!	!	!LO:TX:b:t=P:problem:♯ below	!	!	!	!	!
2E\	6	2E\	.	2c#X\	-ri-	00r	.	0r	.
2D\	.	2D\	.	2d\	-e	.	.	.	.
2G\	.	2G\	.	2d\	e-	.	.	.	.
!LO:TX:t=P:problem:kreska pseudotaktowa	!	!	!	!	!	!	!	!	!
!	!	!	!	!LO:TX:b:t=P:problem:♯ below	!	!	!	!	!
2A\	.	2A\	.	2c#X\	.	.	.	.	.
=4	=4	=4-	=4-	=4-	=4-	=4-	=4-	=4-	=4-
*	*	*	*	*	*	*	*	*2\right	*
2B-X\	.	2B-X\	.	2d\	.	.	.	2r	.
2A\	6	2A\	.	2f\	.	.	.	2a\	Kÿ-
2G\	6	2G\	.	2e\	.	.	.	2cc\	-ri-
!LO:TX:t=P:problem:kreska pseudotaktowa	!	!	!	!	!	!	!	!	!
2F\	6	2F\	.	4d\	.	.	.	2dd\	-e
.	.	.	.	4A\	.	.	.	.	.
=5	=5	=5-	=5-	=5-	=5-	=5-	=5-	=5-	=5-
*	*	*	*	*	*	*2\right	*	*	*
!LO:TX:a:t=P:♯ cyfrowania pod nutą:problem	!	!	!	!	!	!	!	!	!
1E	7 #	1E	-leÿ-	2B\	.	1r	.	2dd\	e-
!	!	!	!	!	!	!	!	!LO:TX:b:t=P:problem:♯ below	!
.	6 x	.	.	4A/	.	.	.	2cc#X\	.
.	.	.	.	4G/	.	.	.	.	.
!LO:TX:t=P:problem:kreska pseudotaktowa	!	!	!	!	!	!	!	!	!
1D	.	1D	-son	1.A	.	1A	Kÿ-	2dd\	.
.	.	.	.	.	.	.	.	2ff\	.
=6	=6	=6-	=6-	=6-	=6-	=6-	=6-	=6-	=6-
2A\	# x	0r	.	.	.	2c#X\	-ri-	2ee\	.
4G\	.	.	.	4G/	.	2d\	-e	2dd\	.
4F\	.	.	.	4F/	.	.	.	.	.
2G\	.	.	.	2G/	.	2d\	e-	1ee	.
!LO:TX:a:t=P:♯ cyfrowania pod nutą:problem	!	!	!	!	!	!	!	!	!
2A\	6\ #	.	.	2.A/	.	2c#\	.	.	.
!LO:LB:g=original	!	!	!	!	!	!	!	!	!
=7-	=7-	=7-	=7-	=7-	=7-	=7-	=7-	=7-	=7-
1D	.	1D	Kÿ-	.	.	2d\	.	2dd\	-leÿ-
.	.	.	.	4G/	.	.	.	.	.
.	.	.	.	4F/	.	1f	.	2a\	.
!	!	!	!	!LO:SIC:v:t=custos D	!	!	!	!	!
.	.	.	.	4E/	.	.	.	.	.
!	!	!	!	!LO:LB:g=original	!	!	!	!	!
2D\	.	2F\	-ri-	2D/	.	.	.	1a	-son
!LO:TX:t=P:problem:kreska pseudotaktowa	!	!	!	!	!	!	!	!	!
2A\	.	2A\	-e	2A/	.	2e\	.	.	.
!	!	!LO:LB:g=original	!	!	!	!	!	!	!
=8	=8	=8-	=8-	=8-	=8-	=8-	=8-	=8-	=8-
2F\	6	2A\	e-	2F/	.	2d\	.	0r	.
2E\	.	2G\	.	2E/	.	1e	.	.	.
!LO:TX:t=P:problem:kreska pseudotaktowa	!	!	!	!	!	!	!	!	!
1F	7	1F	.	1A	.	.	.	.	.
.	6	.	.	.	.	2d\	.	.	.
=9	=9	=9-	=9-	=9-	=9-	=9-	=9-	=9-	=9-
2G\	6	2G\	.	2B\	.	1.e	.	1e	Kÿ-
2A\	.	2A\	.	2.cny\	.	.	.	.	.
2G\	6	2G\	.	.	.	.	.	2g/	-ri-
.	.	.	.	4B\	.	.	.	.	.
!LO:TX:t=P:problem:kreska pseudotaktowa	!	!	!	!	!	!	!	!	!
2F\	6	2F\	.	2A\	.	2d\	.	2a/	-e
=10	=10	=10-	=10-	=10-	=10-	=10-	=10-	=10-	=10-
2.E\	6	2.E\	.	2c\	.	2e\	.	2a/	e-
!	!	!	!	!	!	!LO:SIC:v:t=custos e	!	!LO:SIC:v:t=custos a	!
.	5	.	.	2.B\	.	2B/	.	2g/	.
4D\	.	4D\	.	.	.	.	.	.	.
!	!	!	!	!	!	!LO:LB:g=original	!	!LO:LB:g=original	!
2C\	.	2Cny/	.	.	.	2e\	.	2a\	.
.	.	.	.	4A\	.	.	.	.	.
4BB/	.	4BB/	.	1A\	.	4d\	.	2ccny\	.
!LO:TX:t=P:problem:kreska pseudotaktowa	!	!	!	!	!	!	!	!	!
4AA/	.	4AA/	.	.	.	4cny\	.	.	.
=11	=11	=11-	=11-	=11-	=11-	=11-	=11-	=11-	=11-
2D\	6\	2D\	.	.	.	2f\	.	2b\	.
2E\	.	2E\	.	2G/	.	4e\	.	2.b\	.
.	.	.	.	.	.	4d\	.	.	.
!LO:TX:t=P:problem:kreska pseudotaktowa	!	!	!	!	!	!	!	!	!
1F	.	1F	.	2.A\	.	2c/	.	.	.
.	.	.	.	.	.	.	.	4a\	.
*	*	*	*	*	*	*	*	*lig	*
.	.	.	.	.	.	4B/	.	1a\	.
.	.	.	.	4B\	.	4A/	.	.	.
=12	=12	=12-	=12-	=12-	=12-	=12-	=12-	=12-	=12-
!	!	!	!	!	!	!LO:TX:b:Bi:t=[notatka skryptora]	!	!	!
!	!	!	!	!	!	!LO:TX:a:Bi:t=e	!	!	!
2.E\	.	2.E\	.	2c\	.	2e\	.	.	.
*	*	*	*	*	*	*lig	*	*	*
.	.	.	.	2B\	.	1e	.	1g	.
4D\	.	4D\	.	.	.	.	.	.	.
2C/	.	2C/	.	1A	.	.	.	.	.
*	*	*	*	*	*	*	*	*Xlig	*
!LO:TX:t=P:problem:kreska pseudotaktowa	!	!	!	!	!	!	!	!	!
2D/	.	2D/	.	.	.	1d\	.	2f/	.
*	*	*	*	*	*	*Xlig	*	*	*
=13	=13	=13-	=13-	=13-	=13-	=13-	=13-	=13-	=13-
0AA	5	0AA	-leÿ-	0A	-leÿ-	.	.	0e	-leÿ-
.	3	.	.	.	.	4c/	.	.	.
.	.	.	.	.	.	4B/	.	.	.
.	.	.	.	.	.	1c#X	-leÿ-	.	.
=14-	=14-	=14-	=14-	=14-	=14-	=14-	=14-	=14-	=14-
!	!	!	!	!	!	!	!	!LO:TX:b:t=P:problem:♯ below	!
0D;<	#	0D;>	-son.	0A;>	-son.	0d;<	-son.	0f#X;>	-son.
!!LO:LB:g=original
=15||	=15||	=15||	=15||	=15||	=15||	=15||	=15||	=15||	=15||
*clefC4	*	*	*	*	*	*	*	*	*
*M2/1	*	*M2/1	*	*M2/1	*	*M2/1	*	*M2/1	*
!LO:TX:t=P:problem:w źródle inicjał C na początku pięciolinii	!	!	!	!LO:TX:t=P:problem:w źródle inicjał C na początku pięciolinii	!	!	!	!	!
!	!	!	!	!	!	!LO:TX:t=P:problem:w źródle inicjał C na początku pięciolinii	!	!LO:TX:t=P:problem:w źródle inicjał C na początku pięciolinii	!
!	!	!LO:TX:a:Bi:t=Chriſte tacet	!	!	!	!	!	!	!
!	!	!	!	!LO:TX:a:Bi:t=a3	!	!LO:TX:a:Bi:t=a3	!	!LO:TX:a:Bi:t=a3	!
!LO:TX:b:Bi:t=Chriſte	!	!	!	!	!	!	!	!	!
1A	.	0ryy	.	1A	Chri-	0r	.	00r	.
2A\	.	.	.	2A\	-ſte	.	.	.	.
!LO:TX:t=P:problem:kreska pseudotaktowa	!	!	!	!	!	!	!	!	!
2G\	.	.	.	2G\	.	.	.	.	.
=16	=16	=16-	=16-	=16-	=16-	=16-	=16-	=16-	=16-
2A\	.	0ryy	.	2A\	e-	2r	.	.	.
2B-X\	.	.	.	2B-X\	.	2d\	Chri-	.	.
2.A\	.	.	.	2.A/	.	2d\	-ſte	.	.
.	.	.	.	.	.	2c\	e-	.	.
!LO:TX:t=P:problem:kreska pseudotaktowa	!	!	!	!	!	!	!	!	!
4G\	.	.	.	4G/	.	.	.	.	.
=17	=17	=17-	=17-	=17-	=17-	=17-	=17-	=17-	=17-
4F/	.	0ryy	.	4F/	.	2d\	.	2r	.
4E/	.	.	.	4E/	.	.	.	.	.
2D/	.	.	.	2D/	.	2f\	.	2a\	Chri-
!LO:TX:t=P:problem:kreska pseudotaktowa	!	!	!	!	!	!	!	!	!
1E	4	.	.	1E	.	2.e\	.	2a\	-ste
.	3	.	.	.	.	.	.	2g\	e-
.	.	.	.	.	.	4d\	.	.	.
=18	=18	=18-	=18-	=18-	=18-	=18-	=18-	=18-	=18-
2F/	.	0ryy	.	2F/	.	4c\	.	2a\	.
.	.	.	.	.	.	4f\	.	.	.
2G/	6	.	.	2G/	.	4e\	.	2b-X\	.
.	.	.	.	.	.	4d\	.	.	.
!LO:TX:t=P:problem:kreska pseudotaktowa	!	!	!	!	!	!	!	!	!
1A	.	.	.	1A	.	4c\	.	2.a\	.
.	.	.	.	.	.	4d\	.	.	.
.	.	.	.	.	.	2.e\	.	.	.
.	.	.	.	.	.	.	.	4g\	.
=19	=19	=19-	=19-	=19-	=19-	=19-	=19-	=19-	=19-
1B-X	7	0ryy	.	1B-X	.	.	.	2f/	.
.	6	.	.	.	.	4d\	.	.	.
.	.	.	.	.	.	2d\	.	2g\	.
2A/	.	.	.	2A/	.	2.e\	.	2a\	.
!LO:TX:t=P:problem:kreska pseudotaktowa	!	!	!	!	!	!	!	!	!
2E/	.	.	.	2E/	.	.	.	2g\	.
.	.	.	.	.	.	4d\	.	.	.
=20	=20	=20-	=20-	=20-	=20-	=20-	=20-	=20-	=20-
2F/	.	0ryy	.	2F/	.	2c\	.	2a\	.
!	!	!	!	!LO:SIC:v:t=custos G	!	!	!	!	!
2B-X\	#n	.	.	2B-X/	.	2d\	.	2f/	.
!	!	!	!	!LO:LB:g=original	!	!	!	!	!
2G/	.	.	.	2G/	-e-	2e\	.	2g\	.
2F#X/	6	.	.	2F#X/	.	4d\	.	2a\	.
!	!	!	!	!	!	!LO:SIC:v:t=custos B	!	!	!
.	.	.	.	.	.	4c\	.	.	.
!LO:LB:g=original	!	!	!	!	!	!LO:LB:g=original	!	!	!
=21-	=21-	=21-	=21-	=21-	=21-	=21-	=21-	=21-	=21-
0G	-	0ryy	.	0G	-leÿ-	4B-X/	.	0b-X	-leÿ-
.	.	.	.	.	.	4G/	.	.	.
.	.	.	.	.	.	1g	-leÿ-	.	.
.	.	.	.	.	.	4f#X\	.	.	.
.	.	.	.	.	.	4e\	.	.	.
=22-	=22-	=22-	=22-	=22-	=22-	=22-	=22-	=22-	=22-
!LO:TX:a:t=P:♯ cyfrowania pod nutą:problem	!	!	!	!	!	!	!	!	!
!	!	!	!	!	!	!LO:TX:b:t=P:problem:♯ below	!	!	!
0D;>	#	0ryy	.	0D;>	-son.	0f#X;<	-son.	0a;<	-son.
!	!	!	!	!	!	!	!	!LO:LB:g=original	!
=23||	=23||	=23||	=23||	=23||	=23||	=23||	=23||	=23||	=23||
*clefF4	*	*	*	*	*	*	*	*	*
*M2/1	*	*M2/1	*	*M2/1	*	*M2/1	*	*M2/1	*
!LO:TX:t=P:problem:w źródle inicjał C na początku części	!	!	!	!	!	!	!	!	!
!	!	!LO:TX:t=P:problem:w źródle inicjał C na początku części	!	!LO:TX:t=P:problem:w źródle inicjał C na początku części	!	!	!	!	!
!	!	!	!	!	!	!LO:TX:t=P:problem:w źródle inicjał C na początku części	!	!	!
!	!	!	!	!LO:TX:a:Bi:t=a3	!	!LO:TX:a:Bi:t=a3	!	!	!
!LO:TX:b:Bi:t=Chriſte	!	!	!	!	!	!	!	!LO:TX:a:Bi:t=Chriſte tacet	!
1D	.	1D	Chri-	0r	.	00r	.	0ryy	.
2D\	.	2D/	-ſte	.	.	.	.	.	.
!LO:TX:t=P:problem:kreska pseudotaktowa	!	!	!	!	!	!	!	!	!
2C\	.	2C/	.	.	.	.	.	.	.
=24	=24	=24-	=24-	=24-	=24-	=24-	=24-	=24-	=24-
2D\	.	2D\	e-	1r	.	.	.	0ryy	.
2E-X\	.	2E-X\	.	.	.	.	.	.	.
2D\	.	2D/	.	1A	Chri-	.	.	.	.
!LO:TX:t=P:problem:kreska pseudotaktowa	!	!	!	!	!	!	!	!	!
2C\	6	2C/	.	.	.	.	.	.	.
=25	=25	=25-	=25-	=25-	=25-	=25-	=25-	=25-	=25-
!	!	!	!	!LO:SIC:v:s=2B-/	!	!	!	!	!
1BB-X	7	1BB-X	.	2B/	-ſte	0r	.	0ryy	.
.	6	.	.	2G/	e-	.	.	.	.
2AA/	.	2AA/	.	2A/	.	.	.	.	.
4GG/	-	4GG/	.	1B-X\	.	.	.	.	.
!LO:SIC:v:t=custos BB	!	!	!	!	!	!	!	!	!
4AA/	.	4AA/	.	.	.	.	.	.	.
!LO:LB:g=original	!	!	!	!	!	!	!	!	!
=26-	=26-	=26-	=26-	=26-	=26-	=26-	=26-	=26-	=26-
4BB-X/	.	4BB-X/	.	.	.	2r	.	0ryy	.
4C/	.	4C/	.	.	.	.	.	.	.
!	!	!LO:SIC:v:t=custos AA	!	!	!	!	!	!	!
2D\	.	2D\	.	4A/	.	2d\	Chri-	.	.
.	.	.	.	4G/	.	.	.	.	.
!	!	!LO:LB:g=original	!	!	!	!	!	!	!
!LO:TX:t=P:problem:kreska pseudotaktowa	!	!	!	!	!	!	!	!	!
1AA	6	1AA	.	4F/	.	2d\	-ſte	.	.
.	.	.	.	4G/	.	.	.	.	.
!	!	!	!	!LO:SIC:v:t=custos D	!	!	!	!	!
.	.	.	.	2E/	.	2c\	e-	.	.
!	!	!	!	!LO:LB:g=original	!	!	!	!	!
=27	=27	=27-	=27-	=27-	=27-	=27-	=27-	=27-	=27-
2BB-X/	.	2BB-X\	.	2D/	.	2d\	.	0ryy	.
2C/	6 x	2C\	.	2G/	.	2e-X\	.	.	.
2D\	.	2D\	.	2F/	.	2d\	.	.	.
!LO:TX:t=P:problem:kreska pseudotaktowa	!	!	!	!	!	!	!	!	!
2E\	5 -6	2Eny\	.	2B-X\	.	2g\	.	.	.
=28	=28	=28-	=28-	=28-	=28-	=28-	=28-	=28-	=28-
!	!	!	!	!	!	!LO:SIC:v:t=custos e	!	!	!
1F	7 x	1F	.	2A\	.	1f	.	0ryy	.
.	6 x	.	.	1d	.	.	.	.	.
!	!	!	!	!	!	!LO:LB:g=original	!	!	!
2G\	.	2G\	.	.	.	2eny\	.	.	.
!LO:TX:t=P:problem:kreska pseudotaktowa	!	!	!	!	!	!	!	!	!
2A\	6 5	2A\	.	2c\	.	1a\	.	.	.
=29	=29	=29-	=29-	=29-	=29-	=29-	=29-	=29-	=29-
1B-X	7 x	1B-X	.	1.d	.	.	.	0ryy	.
.	6 x	.	.	.	.	2g\	.	.	.
!LO:TX:a:t=P:♯ cyfrowania pod nutą:problem	!	!	!	!	!	!	!	!	!
2A\	6 #	2A\	.	.	.	2f#X\	.	.	.
!LO:TX:t=P:problem:kreska pseudotaktowa	!	!	!	!	!	!	!	!	!
2G\	.	2G\	.	4e\	.	1g\	.	.	.
.	.	.	.	4Bny\	.	.	.	.	.
=30	=30	=30-	=30-	=30-	=30-	=30-	=30-	=30-	=30-
!LO:TX:a:t=P:♯ cyfrowania pod nutą:problem	!	!	!	!	!	!	!	!	!
2A\	# x	2A\	.	2c\	.	.	.	0ryy	.
4D/	.	4D/	.	4d\	.	4fny\	.	.	.
4C/	.	4C/	.	4A\	.	4e\	.	.	.
!LO:TX:t=P:problem:kreska pseudotaktowa	!	!	!	!	!	!	!	!	!
1BB-X	7	0BB-X	leÿ-	2A\	.	2f\	.	.	.
.	6	.	.	4G\	.	1d\	leÿ-	.	.
.	.	.	.	4F\	.	.	.	.	.
=31	=31	=31-	=31-	=31-	=31-	=31-	=31-	=31-	=31-
1BB-X	.	.	.	1G	.	.	.	0ryy	.
.	.	.	.	.	.	2d\	-son	.	.
1AA	4	1AA	.	2A\	-leÿ-	2c#X\	e-	.	.
.	3	.	.	1d\	.	1f\	-leÿ-	.	.
=32-	=32-	=32-	=32-	=32-	=32-	=32-	=32-	=32-	=32-
!LO:TX:a:t=P:♯ cyfrowania pod nutą:problem	!	!	!	!	!	!	!	!	!
!	!	!LO:TX:a:t=P:w źródle nuta delikatnie wymazana:problem	!	!	!	!	!	!	!
!	!	!LO:SIC:v:s=0AA;>	!	!	!	!	!	!	!
0AA;>	#	0D;>	-son	.	.	.	.	0ryy	.
!	!	!	!	!LO:TX:b:t=P:problem:♯ below	!	!	!	!	!
.	.	.	.	4c#X\	.	4e\	.	.	.
.	.	.	.	4B\	.	4d\	.	.	.
!	!	!	!	!LO:N:vis=0	!	!LO:N:vis=0	!	!	!
.	.	.	.	1c#X;<	-son.	1e;<	-son.	.	.
!LO:LB:g=original	!	!	!	!LO:LB:g=original	!	!LO:LB:g=original	!	!	!
=33-	=33-	=33||	=33||	=33||	=33||	=33-	=33-	=33||	=33||
*clefC4	*	*	*	*	*	*	*	*	*
*M2/1	*	*M2/1	*	*M2/1	*	*M2/1	*	*M2/1	*
!LO:TX:t=P:problem:w źródle inicjał K na początku pięciolinii	!	!	!	!	!	!	!	!	!
!	!	!LO:TX:t=P:problem:w źródle inicjał K na początku pięciolinii	!	!LO:TX:t=P:problem:w źródle inicjał K na początku pięciolinii	!	!	!	!	!
!	!	!	!	!	!	!LO:TX:t=P:problem:w źródle inicjał K na początku pięciolinii	!	!	!
!	!	!	!	!	!	!	!	!LO:TX:t=P:problem:w źródle inicjał K na początku części	!
!LO:TX:b:Bi:t=Kyrie	!	!	!	!	!	!	!	!	!
1d	.	00r	.	0r	.	1d	Kÿ-	00r	.
2c\	.	.	.	.	.	2cny/	-ri-	.	.
!LO:TX:t=P:problem:kreska pseudotaktowa	!	!	!	!	!	!	!	!	!
2B\	.	.	.	.	.	2B/	-e	.	.
=34	=34	=34-	=34-	=34-	=34-	=34-	=34-	=34-	=34-
1A	.	.	.	1A	Kÿ-	2c/	e-	.	.
.	.	.	.	.	.	4B/	.	.	.
.	.	.	.	.	.	4A/	.	.	.
2G/	.	.	.	2G/	-ri-	2B/	.	.	.
!LO:TX:t=P:problem:kreska pseudotaktowa	!	!	!	!	!	!	!	!	!
2F/	6	.	.	2F/	-e	2d\	.	.	.
=35	=35	=35-	=35-	=35-	=35-	=35-	=35-	=35-	=35-
2G/	.	00r	.	2G/	e-	2B/	.	1r	.
4F/	.	.	.	4F/	.	1c	.	.	.
4E/	.	.	.	4E/	.	.	.	.	.
2F/	.	.	.	2F/	.	.	.	1a	Kÿ-
4E/	.	.	.	4E/	.	2d\	.	.	.
!LO:TX:t=P:problem:kreska pseudotaktowa	!	!	!	!	!	!	!	!	!
4D/	.	.	.	4D/	.	.	.	.	.
=36	=36	=36-	=36-	=36-	=36-	=36-	=36-	=36-	=36-
2G/	.	.	.	2G/	.	2B/	.	2g/	-ri-
2D/	.	.	.	2D/	.	1d	.	2f/	-e
2G/	.	.	.	2G/	-leÿ-	.	.	2g/	e-
!LO:TX:a:t=P:♯ cyfrowania pod nutą:problem	!	!	!	!	!	!	!	!	!
!LO:TX:t=P:problem:kreska pseudotaktowa	!	!	!	!	!	!	!	!	!
!	!	!	!	!	!	!LO:TX:b:t=P:problem:♯ below	!	!	!
2A\	#	.	.	2A/	.	2c#X/	.	4f/	.
.	.	.	.	.	.	.	.	4e/	.
=37	=37	=37-	=37-	=37-	=37-	=37-	=37-	=37-	=37-
*clefF4	*	*	*	*	*	*	*	*	*
1D	.	1D	Kÿ-	1D	-son	2d/	.	2f/	.
.	.	.	.	.	.	4cny/	.	4e/	.
.	.	.	.	.	.	4B/	.	4d/	.
2C/	.	2C/	-ri-	0r	.	2c/	.	2e/	.
*	*	*	*	*	*	*	*	*lig	*
!LO:TX:t=P:problem:kreska pseudotaktowa	!	!	!	!	!	!	!	!	!
2BB/	.	2BB/	-e	.	.	2d\	.	1g\	.
=38	=38	=38-	=38-	=38-	=38-	=38-	=38-	=38-	=38-
2C/	.	2C/	e-	.	.	2e\	.	.	.
4BB/	.	4BB/	.	.	.	4d\	.	1a	.
!LO:SIC:v:t=custos D	!	!	!	!	!	!LO:SIC:v:t=custos f	!	!	!
4AA/	.	4AA/	.	.	.	4c\	.	.	.
!LO:LB:g=original	!	!	!	!	!	!LO:LB:g=original	!	!	!
2D\	.	2D\	.	1r	.	2f\	.	.	.
*	*	*	*	*	*	*	*	*Xlig	*
!LO:TX:t=P:problem:kreska pseudotaktowa	!	!	!	!	!	!	!	!	!
2E\	.	2E\	.	.	.	4e\	.	4g/	.
!	!	!	!	!	!	!	!	!LO:SIC:v:t=custos e	!
.	.	.	.	.	.	4d\	.	4f/	.
!	!	!	!	!	!	!	!	!LO:LB:g=original	!
=39	=39	=39-	=39-	=39-	=39-	=39-	=39-	=39-	=39-
*	*	*lig	*	*	*	*	*	*	*
1F	7	1F	leÿ-	2r	.	2c\	leÿ-	2e/	.
.	6	.	.	2d\	Kÿ-	2d\	.	1a	-leÿ-
!LO:TX:t=P:problem:kreska pseudotaktowa	!	!	!	!	!	!	!	!	!
1E	6	1E	.	2c\	-ri-	1e	-son	.	.
!	!	!	!	!	!	!	!	!LO:TX:b:t=P:problem:♯ below	!
.	5	.	.	2B\	-e	.	.	2g#X/	.
*	*	*Xlig	*	*	*	*	*	*	*
=40	=40	=40-	=40-	=40-	=40-	=40-	=40-	=40-	=40-
2AA/	.	1AA	-son	2c\	e-	2r	.	1a	-son
*	*	*	*	*	*	*	*ij	*	*
2D\	.	.	.	2d\	.	2a\	Kÿ-	.	.
!	!	!	!	!LO:SIC:v:t=custos B	!	!	!	!	!
2G\	.	0r	.	2G/	.	2g\	-ri-	2r	.
!	!	!	!	!LO:LB:g=original	!	!	!	!	!
*	*	*	*	*	*	*	*	*	*ij
!LO:TX:t=P:problem:kreska pseudotaktowa	!	!	!	!	!	!	!	!	!
2B-X\	.	.	.	2B-X\	.	4f\	-e	2dd\	Kÿ-
.	.	.	.	.	.	2g\	e-	.	.
=41	=41	=41-	=41-	=41-	=41-	=41-	=41-	=41-	=41-
2A\	.	.	.	2A/	.	.	.	2cc\	-ri-
.	.	.	.	.	.	2f\	.	.	.
2G\	.	.	.	2G/	.	.	.	2b\	-e
.	.	.	.	.	.	4e\	.	.	.
!LO:TX:t=P:problem:kreska pseudotaktowa	!	!	!	!	!	!	!	!	!
1F	.	2r	.	1F	.	2a\	-leÿ-	2cc\	e-
.	.	2A\	Kÿ-	.	.	2A/	-son	4b\	.
.	.	.	.	.	.	.	.	4a\	.
*	*	*	*	*	*	*	*Xij	*	*
=42	=42	=42-	=42-	=42-	=42-	=42-	=42-	=42-	=42-
2E\	.	2G\	-ri-	2E/	.	2r	.	4b\	.
!	!	!	!	!	!	!	!	!LO:TX:b:t=P:problem:♯ below	!
.	.	.	.	.	.	.	.	4cc#X\	.
2D\	.	2F\	-e	2D/	.	2a\	Kÿ-	1dd	-leÿ-
!LO:TX:t=P:problem:kreska pseudotaktowa	!	!	!	!	!	!	!	!	!
1E	7	2G\	e-	1E	-leÿ-	1g	-ri-	.	.
!	!	!	!	!	!	!	!	!LO:TX:b:t=P:problem:♯ below	!
.	6	4F\	.	.	.	.	.	2cc#X\	.
!	!	!LO:SIC:v:t=custos G	!	!	!	!	!	!	!
.	.	4E\	.	.	.	.	.	.	.
!	!	!LO:LB:g=original	!	!	!	!	!	!	!
=43	=43	=43-	=43-	=43-	=43-	=43-	=43-	=43-	=43-
1D	.	2F\	.	1D	-son	1f	-e	1dd	-son
.	.	4E\	.	.	.	.	.	.	.
.	.	4D\	.	.	.	.	.	.	.
*	*	*	*	*	*	*	*	*	*Xij
2G\	6	2G\	.	0r	.	2g\	e-	2r	.
!LO:TX:a:t=P:♯ cyfrowania pod nutą:problem	!	!	!	!	!	!	!	!	!
!LO:TX:t=P:problem:kreska pseudotaktowa	!	!	!	!	!	!	!	!	!
2A\	#	2A\	.	.	.	4f\	.	2ee\	Kÿ-
.	.	.	.	.	.	4e\	.	.	.
=44	=44	=44-	=44-	=44-	=44-	=44-	=44-	=44-	=44-
2D\	.	2D/	-leÿ-	.	.	4f\	.	2dd\	-ri-
.	.	.	.	.	.	4g\	.	.	.
2AA/	.	2AA/	.	.	.	4a\	.	2ccny\	-e
!	!	!	!	!	!	!LO:SIC:v:t=custos f	!	!	!
.	.	.	.	.	.	4g\	.	.	.
!	!	!	!	!	!	!LO:LB:g=original	!	!	!
!LO:TX:t=P:problem:kreska pseudotaktowa	!	!	!	!	!	!	!	!	!
1D	.	1D	-son	1r	.	4f\	.	2dd\	e-
!	!	!	!	!	!	!LO:TX:t=P:problem:kreska oddechu na różnych liniach [rozdzielacz słów / znak oddechu]:global	!	!	!
.	.	.	.	.	.	4d,<\	.	.	.
.	.	.	.	.	.	1a\	.	4cc\	.
.	.	.	.	.	.	.	.	4b\	.
=45	=45	=45-	=45-	=45-	=45-	=45-	=45-	=45-	=45-
1E	8	1r	.	1e	Kÿ-	.	.	2cc\	.
.	7	.	.	.	.	2g\	.	2.b\	.
!LO:SIC:v:t=custos A	!	!	!	!	!	!	!	!	!
2D\	.	2r	.	2d\	-ri-	2f\	.	.	.
.	.	.	.	.	.	.	.	4a\	.
!LO:LB:g=original	!	!	!	!	!	!	!	!	!
!LO:TX:t=P:problem:kreska pseudotaktowa	!	!	!	!	!	!	!	!	!
2A\	.	2A\	Kÿ-	2c\	-e	2e\	.	2a\	-leÿ-
!	!	!	!	!	!	!	!	!LO:LB:g=original	!
=46	=46	=46-	=46-	=46-	=46-	=46-	=46-	=46-	=46-
1G	.	1G	-ri-	2d\	e-	2d\	.	1b	-son
.	.	.	.	1e	.	4c/	.	.	.
.	.	.	.	.	.	4B/	.	.	.
!LO:TX:t=P:problem:kreska pseudotaktowa	!	!	!	!	!	!	!	!	!
1F	.	1F	-e	.	.	2c/	.	2r	.
.	.	.	.	2d\	.	4B/	.	2a\	Kÿ-
.	.	.	.	.	.	4A/	.	.	.
=47	=47	=47-	=47-	=47-	=47-	=47-	=47-	=47-	=47-
2E\	.	2E\	e-	2G/	.	2B/	.	1gny	-ri-
2C\	.	4D/	.	1A	.	2c\	.	.	.
.	.	4C/	.	.	.	.	.	.	.
2D\	.	2D/	.	.	.	2f\	.	1f	-e
4C\	.	4C/	.	2Bny\	.	4e\	.	.	.
!LO:TX:t=P:problem:kreska pseudotaktowa	!	!	!	!	!	!	!	!	!
4BB\	.	4BB/	.	.	.	4d\	.	.	.
=48	=48	=48-	=48-	=48-	=48-	=48-	=48-	=48-	=48-
2AA/	.	2AA/	.	1c	.	2e\	.	2e/	e-
2C\	.	2C/	.	.	.	2a\	.	2ee\	.
*	*	*	*	*	*	*lig	*	*	*
!LO:TX:t=P:problem:kreska pseudotaktowa	!	!	!	!	!	!	!	!	!
1D	.	1D	.	2B\	.	1f	-leÿ-	1dd	.
.	.	.	.	2A/	.	.	.	.	.
=49	=49	=49-	=49-	=49-	=49-	=49-	=49-	=49-	=49-
2E\	.	2E\	.	2G/	.	1e	.	2cc\	.
*	*	*	*	*	*	*	*	*lig	*
!	!	!	!	!LO:SIC:v:t=custos B	!	!	!	!	!
2F\	.	2F\	.	2A\	.	.	.	1dd	.
*	*	*	*	*	*	*Xlig	*	*	*
!	!	!	!	!LO:LB:g=original	!	!	!	!	!
!	!	!LO:SIC:v:t=custos A	!	!	!	!	!	!	!
2G\	.	2G\	.	2B\	.	1e	-son	.	.
!	!	!LO:LB:g=original	!	!	!	!	!	!	!
!LO:TX:t=P:problem:kreska pseudotaktowa	!	!	!	!	!	!	!	!	!
2A\	.	2A\	.	2e\	.	.	.	1cc\	.
*	*	*	*	*	*	*	*	*Xlig	*
=50	=50	=50-	=50-	=50-	=50-	=50-	=50-	=50-	=50-
2F\	.	2F\	.	1d	-leÿ-	1r	.	.	.
2G\	.	2G\	.	.	.	.	.	1b	.
2E\	.	2E\	.	1c	-son	2r	.	.	.
!LO:TX:t=P:problem:kreska pseudotaktowa	!	!	!	!	!	!	!	!	!
2F\	.	2F\	.	.	.	2a\	Kÿ-	2a\	.
=51	=51	=51-	=51-	=51-	=51-	=51-	=51-	=51-	=51-
1C	.	1C	.	2r	.	1g	-ri-	1cc	.
.	.	.	.	2e\	Kÿ-	.	.	.	.
*	*	*	*	*	*	*	*	*lig	*
2D\	.	2D/	.	2d\	-ri-	1f	-e	1a	.
!LO:TX:t=P:problem:kreska pseudotaktowa	!	!	!	!	!	!	!	!	!
2AA/	.	2AA/	.	2c\	-e	.	.	.	.
=52	=52	=52-	=52-	=52-	=52-	=52-	=52-	=52-	=52-
2BB/	6	2BB/	.	2d\	.	1g	e-	1g	.
*	*	*	*	*lig	*	*	*	*	*
2C/	.	2C/	.	1c	e-	.	.	.	.
*	*	*	*	*	*	*	*	*Xlig	*
2AA/	.	2AA/	.	.	.	1.f	-leÿ-	2a\	.
2BB-X/	6	2BB-X/	.	1d\	.	.	.	2f/	-leÿ-
*	*	*	*	*Xlig	*	*	*	*	*
=53-	=53-	=53-	=53-	=53-	=53-	=53-	=53-	=53-	=53-
!LO:TX:a:t=P:♯ cyfrowania pod nutą:problem	!	!	!	!	!	!	!	!	!
0AA	6 4 #	0AA	-leÿ-	.	.	.	.	0a	-son.
.	.	.	.	4c#X\	.	4e\	.	.	.
.	.	.	.	4B\	.	4d\	.	.	.
!	!	!	!	!LO:N:vis=2	!	!	!	!	!
.	.	.	.	1c#X\	-leÿ-	1e	.	.	.
.	.	.	.	.	.	.	.	.	.
=54-	=54-	=54-	=54-	=54-	=54-	=54-	=54-	=54-	=54-
!	!	!	!	!	!	!LO:TX:t=P:problem:♯ above and ♯ below	!	!	!
0D;<	#	0D;>	-son.	0d;<	-son.	0f#Xi;<	-son.	0a;<	.
==	==	==	==	==	==	==	==	==	==
*-	*-	*-	*-	*-	*-	*-	*-	*-	*-
!!title: @{OTL};
!!!RDF**kern: > = above
!!!RDF**kern: < = below
!!!RDF**kern: | = vertical stroke
!!!RDF**kern: N = linked
!!!RDF**kern: i = editorial accidental
!!!RDF**kern: l = terminal long
!!!ENC: Krzysztof Stępień
!!!END: 2021-07-05
!!!EED: Wojciech Jakubiak-Danek
!!!EST: 2021-07-28
!!!URL-scan: http://repozytorium.nifc.pl/skany/pl-kk-nut--i-35
!!!ONB-nifc: UWAGA: części Mszy: 1. Kyrie, 2. Et in terra, 3. Patrem, 4. Sanctus, 5. Agnus Dei
